X:0274
M:C|
L:1/8
Q:1/2=120
K:D
de|fdec d4|D2A2 BAGF|G2 E4 (de)|fdec d4|F2d2 Tc3 B|A2 F4
de|fdec d4|D2A2 BAGF|G2 E4  F2 |D2F2 A4|F2d2  edcB|A2 F4  :|

